storage/app/icons/phosphoricons/duotone/piano-keys-duotone.svg

<svg xmlns="http://www.w3.org/2000/svg" fill="currentColor" viewBox="0 0 256 256"><path d="M184 40v104h-40V40ZM72 144h40V40H72Z" opacity=".2"/><path d="M208 32H48a16 16 0 0 0-16 16v160a16 16 0 0 0 16 16h160a16 16 0 0 0 16-16V48a16 16 0 0 0-16-16M80 48h24v88H80Zm32 104a8 8 0 0 0 8-8V48h16v96a8 8 0 0 0 8 8h8v56h-48v-56Zm40-16V48h24v88ZM48 48h16v96a8 8 0 0 0 8 8h16v56H48Zm160 160h-40v-56h16a8 8 0 0 0 8-8V48h16z"/></svg>

<svg xmlns="http://www.w3.org/2000/svg" viewBox="0 0 256 256" fill="currentColor"><path d="M184,40V144H144V40ZM72,144h40V40H72Z" opacity="0.2"/><path d="M208,32H48A16,16,0,0,0,32,48V208a16,16,0,0,0,16,16H208a16,16,0,0,0,16-16V48A16,16,0,0,0,208,32ZM80,48h24v88H80Zm32,104a8,8,0,0,0,8-8V48h16v96a8,8,0,0,0,8,8h8v56H104V152Zm40-16V48h24v88ZM48,48H64v96a8,8,0,0,0,8,8H88v56H48ZM208,208H168V152h16a8,8,0,0,0,8-8V48h16V208Z"/></svg>
